X:162
T:Ralph and Jean's Reel
R:reel
C:Bruce Osborne  --  July 1998
Z:abc by bosborne@kos.net
M:2/4
L:1/8
K:A
E/D/|C/A,/C/E/ AA/B/|c/e/c/A/ EG/A/|B/E/c/E/ d/E/c/E/|B/E/c/E/ BE/D/|\
C/A,/C/E/ AA/B/|c/e/c/A/ EG/A/|B/E/c/E/ d/B/G/B/|A/G/A/B/ A:|
|:c/d/|e/f/e/c/ B/A/E/C/|D/F/A/d/ fc/d/|e/a/g/a/ e/c/A/c/|B/A/G/A/ Bc/d/|\
e/f/e/c/ B/A/E/C/|D/F/A/d/ fc/d/|e/a/g/a/ e/c/A/c/|B/A/G/B/ A:|
